build/img/icon-left.svg

<svg width="46" height="67" viewBox="0 0 46 67" fill="none" xmlns="http://www.w3.org/2000/svg">
<g filter="url(#filter0_d)">
<path d="M10.7836 29.5044L37.6568 5.75937C37.7655 5.66422 37.8519 5.55093 37.9108 5.42608C37.9697 5.30122 38 5.16728 38 5.03198C38 4.89669 37.9697 4.76275 37.9108 4.63789C37.8519 4.51303 37.7655 4.39975 37.6568 4.30459C37.548 4.20805 37.4188 4.13144 37.2765 4.07918C37.1342 4.02691 36.9816 4 36.8275 4C36.6734 4 36.5208 4.02691 36.3785 4.07918C36.2362 4.13144 36.1069 4.20805 35.9981 4.30459L8.34437 28.7646C8.23521 28.8608 8.14861 28.9752 8.08951 29.101C8.03042 29.2269 8 29.3619 8 29.4982C8 29.6345 8.03042 29.7694 8.08951 29.8953C8.14861 30.0212 8.23521 30.1355 8.34437 30.2317L35.9981 54.7041C36.2228 54.8951 36.5228 55.0013 36.8344 55C37.0644 54.9981 37.2886 54.9363 37.4792 54.8224C37.6697 54.7085 37.8181 54.5475 37.9058 54.3594C37.9935 54.1714 38.0167 53.9647 37.9724 53.765C37.9281 53.5654 37.8184 53.3818 37.6568 53.237L10.7836 29.5044Z" fill="#283645"/>
<path d="M10.7836 29.5044L37.6568 5.75937C37.7655 5.66422 37.8519 5.55093 37.9108 5.42608C37.9697 5.30122 38 5.16728 38 5.03198C38 4.89669 37.9697 4.76275 37.9108 4.63789C37.8519 4.51303 37.7655 4.39975 37.6568 4.30459C37.548 4.20805 37.4188 4.13144 37.2765 4.07918C37.1342 4.02691 36.9816 4 36.8275 4C36.6734 4 36.5208 4.02691 36.3785 4.07918C36.2362 4.13144 36.1069 4.20805 35.9981 4.30459L8.34437 28.7646C8.23521 28.8608 8.14861 28.9752 8.08951 29.101C8.03042 29.2269 8 29.3619 8 29.4982C8 29.6345 8.03042 29.7694 8.08951 29.8953C8.14861 30.0212 8.23521 30.1355 8.34437 30.2317L35.9981 54.7041C36.2228 54.8951 36.5228 55.0013 36.8344 55C37.0644 54.9981 37.2886 54.9363 37.4792 54.8224C37.6697 54.7085 37.8181 54.5475 37.9058 54.3594C37.9935 54.1714 38.0167 53.9647 37.9724 53.765C37.9281 53.5654 37.8184 53.3818 37.6568 53.237L10.7836 29.5044Z" stroke="black" stroke-width="7"/>
</g>
<defs>
<filter id="filter0_d" x="0.5" y="0.5" width="45" height="66" filterUnits="userSpaceOnUse" color-interpolation-filters="sRGB">
<feFlood flood-opacity="0" result="BackgroundImageFix"/>
<feColorMatrix in="SourceAlpha" type="matrix" values="0 0 0 0 0 0 0 0 0 0 0 0 0 0 0 0 0 0 127 0"/>
<feOffset dy="4"/>
<feGaussianBlur stdDeviation="2"/>
<feColorMatrix type="matrix" values="0 0 0 0 0 0 0 0 0 0 0 0 0 0 0 0 0 0 0.25 0"/>
<feBlend mode="normal" in2="BackgroundImageFix" result="effect1_dropShadow"/>
<feBlend mode="normal" in="SourceGraphic" in2="effect1_dropShadow" result="shape"/>
</filter>
</defs>
</svg>

<svg width="46" height="67" fill="none" xmlns="http://www.w3.org/2000/svg"><g filter="url(#filter0_d)"><path d="M10.784 29.504L37.657 5.76a1.02 1.02 0 00.254-.333.922.922 0 000-.788 1.027 1.027 0 00-.254-.333 1.191 1.191 0 00-.38-.226 1.305 1.305 0 00-.898 0 1.191 1.191 0 00-.38.226L8.343 28.765a1.03 1.03 0 00-.254.336.933.933 0 000 .794c.059.126.145.24.254.337l27.654 24.472c.225.191.525.297.836.296a1.28 1.28 0 00.645-.178c.19-.114.34-.275.427-.463a.925.925 0 00.066-.594 1.003 1.003 0 00-.315-.528L10.784 29.504z" fill="#283645"/><path d="M10.784 29.504L37.657 5.76a1.02 1.02 0 00.254-.333.922.922 0 000-.788 1.027 1.027 0 00-.254-.333 1.191 1.191 0 00-.38-.226 1.305 1.305 0 00-.898 0 1.191 1.191 0 00-.38.226L8.343 28.765a1.03 1.03 0 00-.254.336.933.933 0 000 .794c.059.126.145.24.254.337l27.654 24.472c.225.191.525.297.836.296a1.28 1.28 0 00.645-.178c.19-.114.34-.275.427-.463a.925.925 0 00.066-.594 1.003 1.003 0 00-.315-.528L10.784 29.504z" stroke="#000" stroke-width="7"/></g><defs><filter id="filter0_d" x=".5" y=".5" width="45" height="66" filterUnits="userSpaceOnUse" color-interpolation-filters="sRGB"><feFlood flood-opacity="0" result="BackgroundImageFix"/><feColorMatrix in="SourceAlpha" values="0 0 0 0 0 0 0 0 0 0 0 0 0 0 0 0 0 0 127 0"/><feOffset dy="4"/><feGaussianBlur stdDeviation="2"/><feColorMatrix values="0 0 0 0 0 0 0 0 0 0 0 0 0 0 0 0 0 0 0.25 0"/><feBlend in2="BackgroundImageFix" result="effect1_dropShadow"/><feBlend in="SourceGraphic" in2="effect1_dropShadow" result="shape"/></filter></defs></svg>
